X: 2
T:Willafjord
M:C
L:1/8
C:as played by Tom Anderson
R:reel
K:D
B| "D"A2 F(A A)DFA |"G"B2 G(B B)DGB | "D" A2 F(A A)DFA| "A"(EF)GA (GF)ED
 |!
"D"A2 F(A A)DFA |"G"B2 G(B B)DG(B|"A"AB)c(d ef)ge| "D"f2 [D2d2] [D3d3]:|
